!!!COM: Music21
!!!OTL: Pasiños
!!!OMV: pezas_pasodobles_pasinos_pasinos-partitura.musicxml
**kern
*part1
*staff1
*I"Bagpipes
*I'Bag
*clefG^2
*k[]
*M2/4
=1
!LO:TX:a:t=Vivace
*MM144
!LO:TX:a:t=[quarter]=144
4r
8ccL
8ddJ
=||
8eeL
8ddJ
8eeL
8ffJ
=
4gg
4aa
=
16ggLL
16aa
16gg
16ffJJ
4ee
=
4ee
4gg
=
16ffLL
16gg
16ff
16eeJJ
4dd
=
4dd
4aa
=
16ggLL
16aa
16gg
16ffJJ
4ee
=
4ee
8ccL
8ddJ
=
8eeL
8ddJ
8eeL
8ffJ
!!linebreak:original
=
4gg
4aa
!!linebreak:original
=
16ggLL
16aa
16gg
16ffJJ
4ee
=
8eeL
8ffJ
8ggL
8eeJ
=
16ffLL
16gg
16ff
16eeJJ
8ddL
8eeJ
=
8ffL
8ggJ
8ffL
8ddJ
=
16eeLL
16ff
16ee
16ddJJ
4cc
=
4cc
8eeL
8ffJ
=
8ggL
8ffJ
8ggL
8aaJ
=
4bb
4ccc
=
16bbLL
16ccc
16bb
16aaJJ
4gg
!!linebreak:original
=
4gg
4bb
!!linebreak:original
=
16aaLL
16bb
16aa
16ggJJ
4ff
=
4ff
4ccc
=
16bbLL
16ccc
16bb
16aaJJ
4gg
=
4gg
8eeL
8ffJ
=
8ggL
8ffJ
8ggL
8aaJ
=
4bb
4ccc
=
16bbLL
16ccc
16bb
16aaJJ
4gg
=
8ggL
8aaJ
8bbL
8ggJ
=
16aaLL
16bb
16aa
16ggJJ
8ffL
8ggJ
=
8aaL
8bbJ
8aaL
8ffJ
!!linebreak:original
=
16ggLL
16aa
16gg
16ffJJ
4ee
=
4ee
8eeL
8ggJ
=||
8.cccL
16bbJk
8cccL
8aaJ
=
16bbLL
16ccc
16bb
16aaJJ
16ggLL
16aa
16bb
16ggJJ
=
16aaLL
16bb
16aa
16ggJJ
16ffLL
16gg
16aa
16ffJJ
=
4gg
8ddL
8ffJ
=
8.bbL
16aaJk
8bbL
8ggJ
!!pagebreak:original
=
16aaLL
16bb
16aa
16ggJJ
16ffLL
16gg
16aa
16ffJJ
!!linebreak:original
=
8ggL
16ffL
16eeJJ
16ddLL
16ee
16ff
16ddJJ
=
4ee
8eeL
8ggJ
=||
8.cccL
16bbJk
8cccL
8aaJ
=
16bbLL
16ccc
16bb
16aaJJ
16ggLL
16aa
16bb
16ggJJ
=
16aaLL
16bb
16aa
16ggJJ
16ffLL
16gg
16aa
16ffJJ
=
4gg
8ddL
8ffJ
=
8.bbL
16aaJk
8bbL
8ggJ
!!linebreak:original
=
16aaLL
16bb
16aa
16ggJJ
16ffLL
16gg
16aa
16ffJJ
!!linebreak:original
=
8ggL
16ffL
16eeJJ
16ddLL
16ee
16ff
16ddJJ
=
4cc
12ggL
12aa
12bbJ
=
8ccc
8r
4cc
=||
*k[b-]
*F:
4aa
.
8aaL
8ggJ
=
8ffL
8ccJ
8bb-L
8aaJ
=
4gg
.
8ggL
8ffJ
=
4ee
.
4cc
.
=
4gg
.
8ggL
8ffJ
!!linebreak:original
=
8eeL
8ccJ
8aaL
8ggJ
=
4ff
.
8ffL
8ggJ
=
4aa
4cc
=
4aa
.
8aaL
8ggJ
=
8ffL
8ccJ
8bb-L
8aaJ
=
4gg
.
8bb-L
8aaJ
=
8ggL
8aaJ
8ggL
8ffJ
=
4ee
.
8ggL
8ffJ
=
8eeL
8ffJ
8ggL
8eeJ
=
2ff
.
.
.
!!linebreak:original
=
4ff
4cc
=||
4aa
.
8aaL
8ggJ
=
8ffL
8ccJ
8bb-L
8aaJ
=
4gg
.
8ggL
8ffJ
=
4ee
.
4cc
.
=
4gg
.
8ggL
8ffJ
!!linebreak:original
=
8eeL
8ccJ
8aaL
8ggJ
=
4ff
.
8ffL
8ggJ
=
4aa
4cc
=
4aa
.
8aaL
8ggJ
=
8ffL
8ccJ
8bb-L
8aaJ
=
4gg
.
8bb-L
8aaJ
=
8ggL
8aaJ
8ggL
8ffJ
=
4ee
.
8ggL
8ffJ
=
8eeL
8ffJ
8ggL
8eeJ
=
2ff
.
.
.
!!pagebreak:original
=
4ff
8ccL
8ddJ
==
*-
!!!system-decoration: s1,s2
